X: 431
T: Denis Don't Be Threatening
N:Irish title: na .bi ag .bagar a .donca.d
B:O'Neill's 431
Z:Transcribed by henrik.norbeck@mailbox.swipnet.se
M:6/8
L:1/8
K:D
d | (cBA) ABA | c2 A A2 c | d2 d efg | f2 d d2 d |
{d}(cBA) ABA | Tc2 A A2 c | d2 d .e(ag) | f2 d d2 ||
e | (fgf) f2 d | (efe) e2 d | cBA Bcd | {f}e2 d d2 e |
.f(gf) f2 d | .e(fe) e2 d | cBA Bcd | f>ed d2 ||


